data/styles/clear/style-night/symbols/recycling-m.svg

<svg height="24" viewBox="0 0 24 24" width="24"><g fill="#fff" fill-rule="evenodd"><circle cx="12" cy="12" opacity=".1" r="12"/><path d="m10.75 6-.625.63157895h-3.125v1.26315789h10v-1.26315789h-3.125l-.625-.63157895zm-3.125 2.52631579.546875 8.28947371c.04375.6637894.591875 1.1842105 1.25 1.1842105h5.15625c.658125 0 1.20625-.5204211 1.25-1.1842105l.546875-8.28947371z" fill-rule="nonzero" opacity=".6"/></g></svg>

<svg width="24" height="24" viewBox="0 0 24 24">
  <g fill="#FFF" fill-rule="evenodd">
    <circle cx="12" cy="12" r="12" opacity=".1"/>
    <path fill-rule="nonzero" d="M10.75,6 L10.125,6.63157895 L7,6.63157895 L7,7.89473684 L17,7.89473684 L17,6.63157895 L13.875,6.63157895 L13.25,6 L10.75,6 Z M7.625,8.52631579 L8.171875,16.8157895 C8.215625,17.4795789 8.76375,18 9.421875,18 L14.578125,18 C15.23625,18 15.784375,17.4795789 15.828125,16.8157895 L16.375,8.52631579 L7.625,8.52631579 Z" opacity=".6"/>
  </g>
</svg>
